X:1
T:em Sepp syn (De Berner). C-Dur
S:Naturjodel rund um den Saentis (www.roothuus-gonten.ch)
%%partsbox
%P:ABC 
Q:1/4=48  "  rubato" 
R:Naturjodel
M:4/4
L:1/8
K:C %  (%%MIDI gchordon) 
[P:A] G/G/ G/e/d/c/ | A>C CE G>e dc | "G7"f>B AG !breath! !fermata!B,G/G/ G/f/d/B/ | A>B, B,D G>f df | 
w: ja-la-la-u-du-lü  u-ja la jo ja-u lu lü  u lü du du  jo ja-la-la-u-du-lü  u-ja la jo ja-u lu-u
"C"e>c AG !breath! !fermata!CG/G/ G/e/d/c/ | A>C CE G>e dc | "G7"f>B AG !breath! !fermata!B,G/G/ G/f/d/B/ | 
w:du-lü du du jo ja-la-la-u-du-lü  u-ja la jo ja-u lu lü  u lü du jo la ja-la-la-u-lu-lü 
A>B, B,D G>f de | "C"c6z2 |] 
w:u-ja la jo ja-u du lü   u
M:3/4
[P:B] CD | E>DC2 E/G/c/d/ | "C"e2C2 Ge | "G7"d2 B,D F/>F/d | "C"c2!breath! !fermata!C2CD 
w: jo ho   jo-la la jo-la-u-lü  u-ja jo-u  lu-jo-lo jo-li-u   lu ja jo ho 
"C"E>DC2 E/G/c/d/ | e2C2 Ge | "G7"d2 B,D Fd | "C"c4z2 |] 
w:jo-la la jo-la-u-lü  u-ja jo-u  lu ja-lo jo-lu  u 
M:4/4
[P:C] [K:bass] C>C DC | "F"A,>G, F,2  C>D C/B,/A, | [M:3/4] "C"G,>E,C,2 G,C | "G7"B,>A, G,2 F,/G,/B,/D/ | [M:4/4] "C"C>D !breath! !fermata! E2 C>C DC | 
w: jo-li ho lo ja-du-ja jo-lo jo-lo-di  ja-lu-ja ja ho  jo-lo ja jo-la-jo-lo  jo-lo-ja jo-li ho lo 
"F"A,>G,F,2 C>D C/B,/A, | [M:3/4] "C"G,>E, C,2 G,C | [M:4/4] "G7"B,>A, G,2 F,/G,/D/G,/ "rit." ED | "C"C6z2 |] 
w:ja-du-ja jo-lo jo-lo-di  ja-lu-ja ja-ho  jo-lo-ja jo-la-ho-a-jo-lo  jo
W:
%W:Parts:ABC
W: trad. Toggenburg
W: Jodler Albert Ackermann, Ueli Wickli, Jakob Tischhauser
W: LP Helvetia H 377, 25 Jahre Jodlerklub Bergfründ Ennetbühl (1986)
W: 
W: Teil B ist thematisch ähnlich mit Teil A vom "de Looser" #1257, 
W:  wird aber meistens viel langsamer gesungen.
W: Die Baritonlage im Teil C ist selten im Toggenburger Jodel
W: 
W: Von diesem Jodel gibt es keine historische Aufnahme, stammt aber
W:  auch aus der Zeit von Emil Hatmann und wurde von Josef Zgraggen 
W: (Dirigent JK Ennetbühl W: und Jo-Chörli Hüsliberg) wieder "aus dem Schlaf geweckt".
W: 
W: Weitere Quellen:
W:JK Ebnat-Kappel, "De Berner"; CD JK Ebnat-Kappel
W:JK Flawil (Jodler Erwin Schoch und Ferdinand Fässler) mit dem Namen
W:"Vernachte i de Schneit" Aufnahme ca. 1965
W: 
W:https://www.roothuus-gonten.ch/mediendateien/jodel/pdf/Em Sepp syn (De Berner).pdf
W: *AUDIO*:  www.roothuus-gonten.ch/cms/index.php/de/naturjodel-rund-um-den-saentis
% © 2015 ROOTHUUS GONTEN. #1352.10
% Mar 07, 2019 

